X: 745
T: The girl with the laughing eyes
C: anon.
O: Ireland
B: Francis O'Neill: "The Dance Music of Ireland" (1907) no. 745
R: Reel
Z: Transcribed by Frank Nordberg - http://www.musicaviva.com
F: http://www.musicaviva.com/abc/tunes/ireland/oneill-1001/oneill-1001-074
5.abc
M: C|
L: 1/8
K: D
(3(ABc)|d2(FG) Adef|gfed gdBc|d2(FG) A2(AB)|AFEG FDDA|d2(FG) Adef|gfed gd
Bc|d2FG A2(ag)|faef d2||
(3(efg)|afbf afdf|gfed cd (3(efg)|afbf afdf|abag fd (3(efg)|afbf afdf|gfe
d fdBc|d2FG A2(ag)|faef d2|]
W:
W:
W: From Musica Viva - http://www.musicaviva.com
W: the Internet center for free sheet music downloads.


